X: 1113
T: To bed we l go: A new Song-Tune.abc
N: The title is "To bed we'll go" in most other collections.
%R: song, march
B: Henry Playford "Apollo's Banquet", London 1687 (5th Edition)
F: https://archive.org/details/apollosbanquetco01rugg
Z: 2017 John Chambers <jc:trillian.mit.edu>
M: C|
L: 1/8
K: Bb	% Ends on Gm
% - - - - - - - - - -
d2 |\
c3B c2d2 | B3A G3B | F2B2 B3c | (dc)(de) f4 |\
b2g2 (ga)b2 | d2(cB) c3c | d2d2 g3A | B2G2 G2 :|
|: G2 |\
f3g f3d | (ga)(gf) b4 | b2g2 (ga)b2 | d2d2 d4 |\
edcB c3B | ABAG A2(Bc) | d2d2 g3a | b2g2 g2 |]
% - - - - - - - - - -

%%sep 1 1 500
%%sep 1 1 500

